X:1
T:Ave Maria
T:Caspar Ett
T:Ave Maria 
T:CPDL   —   Creative Commons Attribution Non Commercial 3.0
T:CPDL   —   Creative Commons Attribution Non Commercial 3.0
T:CPDL   —   Creative Commons Attribution Non Commercial 3.0
C:Caspar Ett
Z:CPDL   —   Creative Commons Attribution Non Commercial 3.0
%%score [ ( 1 2 ) 3 4 ]
L:1/8
Q:1/4=120
M:4/4
K:F
V:1 treble nm="Sopran\nAlt"
V:2 treble 
V:3 treble-8 nm="Tenor"
V:4 bass nm="Bass"
V:1
!p!"^Poco Adagio" c4 A4 | A4 F4 | B4!<(! B2 B2!<)! |!>(! B4!>)! A4 |!f! d3 d d4 | d4 c4 | c3 c c4 | %7
w: A- ve,|a- ve,|a- ve Ma-|ri- a,|gra- ti- a|ple- na!|Do- mi- nus|
 c6 !breath!B2 | A2!<(! =B2 c2!<)! ^c2 |!f! d2 e2 f2 d2 | c4!>(! =B4 | c4!>)! z4 |!p! G4 G2 G2 | %13
w: te- cum,|be- ne- di- cta|tu in mu- li-|e- ri-|bus,|et be- ne-|
 G4 G4 | G2 G2 G2 G2 | G2 G2 E2 F2 |!<(! G2 A2 B2!<)! c2 | !^!d6 c2- | c2 B4!>(! A2!>)! | %19
w: di- ctus|fru- ctus ven- tris|tu- i, be- ne-|di- ctus fru- ctus|ven- tris|_ tu- i,|
!p! A4 !fermata!G4 |!mf! A4 A2 A2 | c4 A4 | B6 d2 | d4 c4 |!f! =e4 e2 e2 | f6 _e2- | %26
w: Je- sus.|San- cta Ma-|ri- a,|ma- ter|De- i,|o- ra pro|no- bis|
 e2!>(! d4!>)! c2 | !breath!B4!pp! A2 A2 | G4 _A4 | =A6 A2 | G8 | !breath!A4!mf! c4 | B4 A4 | %33
w: _ De- um|nunc et in|ho- ra|mor- tis|no-|strae, o-|ra pro|
 B4 c4 |!f! d4 d2 d2 | G4 G4 | c6 B2 |!>(! (A8!>)! | G8) | !fermata!F8 |!p!!<(! F8- | F8-!<)! | %42
w: no- bis|nunc et in|ho- ra|mor- tis|no-||strae.|A-||
 F8- |!>(! F8!>)! |!pp! F8- | F8 |] %46
w: ||men.|_|
V:2
 A4 F4 | F4 C4 | F4 F2 F2 | F4 F4 | F3 F G4 | A4 F4 | E3 E F4 | G4 E4 | F2 F2 E2 E2 | F2 A2 A2 A2 | %10
 G4 G4 | G4 x4 | E4 E2 E2 | F4 F4 | F2 F2 F2 F2 | F2 E2 C2 D2 | E2 F2 G2 A2 | B6 A2- | A2 G4 F2 | %19
 F4 E4 | F4 F2 F2 | F4 F4 | F6 B2 | B4 A4 | G4 G2 G2 | F4 F4- | F4 F4 | F4 F2 F2 | F4 F4 | F6 F2 | %30
 (F2 ED E4) | F4 F4 | F4 F4 | F4 F4 | F4 F2 F2 | E4 E4 | F6 G2 | F2 C2 F4- | F4 E4 | F8 | D8 | %41
 _E8 | D8- | D8 | C8- | C8 |] %46
V:3
 z8 |!p! c4 A4 | B4!<(! B2 B2!<)! |!>(! c4!>)! c4 |!f! d3 d e4 | f4 c4 | B3 B A4 | G4 !breath!c4 | %8
w: |A- ve,|a- ve Ma-|ri- a,|gra- ti- a|ple- na!|Do- mi- nus|te- cum,|
 c2!<(! d2 c2!<)! A2 |!f! A2 ^c2 d2 d2 | e4!>(! d4 | e4!>)! z4 |!p! c4 c2 c2 | d4 d4 | %14
w: be- ne- di- cta|tu in mu- li-|e- ri-|bus,|et be- ne-|di- ctus|
 d2 d2 d2 d2 | d2 c2 z4 |!<(! (c4 B2)!<)! A2 | !^!G4 A4 | e4!>(! f4!>)! |!p! c4 !fermata!c4 | %20
w: fru- ctus ven- tris|tu- i,|fru- * ctus|ven- tris|tu- i,|Je- sus.|
!mf! c4 c2 c2 | A4 c4 | d6 f2 | f4 f4 |!f! c4 c2 c2 | c4 c4 | B4!>(! A4!>)! | %27
w: San- cta Ma-|ri- a,|ma- ter|De- i,|o- ra pro|no- bis|De- um|
 !breath!B4!pp! c2 c2 | d4 d4 | c4 A4 | (d4 c4) | !breath!c2!mf! !>!f4 _e2- | e2 d4 c2- | %33
w: nunc et in|ho- ra|mor- tis|no- *|strae, o- *|* ra pro|
 c2 B4 A2 |!f! G4 G2 G2 | c4 c4 | c4 d4 |!>(! c6!>)! A2 | d4 c2 B2 | !fermata!A8 |!p!!<(! B8 | %41
w: _ no- bis|nunc et in|ho- ra|mor- tis|no- *||strae.|A-|
 c8-!<)! | c4 B2 A2 |!>(! B8-!>)! |!pp! B4 A2 G2 | A8 |] %46
w: ||||men.|
V:4
 z8 |!p! F,4 F,4 | D,4!<(! D,2 D,2!<)! |!>(! C,4!>)! C,4 |!f! B,,3 B, B,4 | A,4 A,4 | G,3 G, F,4 | %7
w: |||||||
 E,4 !breath!G,4 | F,2!<(! D,2 A,2!<)! G,2 |!f! F,2 E,2 D,2 F,2 | G,4!>(! G,4 | C,4!>)! z4 | %12
w: |||||
!p! C,4 C,2 C,2 | (C,2 =B,,2) B,,4 | =B,,2 B,,2 B,,2 B,,2 | C,2 C,2 C2 =B,2 | %16
w: |||* * be- ne-|
!<(! _B,2 A,2 G,2!<)! F,2 | !^!E,4 F,4 | (C,4 D,2)!>(! =B,,2!>)! |!p! C,4 !fermata!C,4 | %20
w: di- ctus fru- ctus||||
!mf! F,4 F,2 F,2 | _E,4 E,4 | D,6 B,,2 | F,4 F,4 |!f! B,4 B,2 B,2 | A,4 A,,4 | B,,4!>(! C,4!>)! | %27
w: |||||||
 !breath!D,4!pp! C,2 C,2 | B,,4 =B,,4 | C,4 D,4 | (B,,4 C,4) | !breath!F,4!mf! A,,4 | B,,4 C,4 | %33
w: ||||||
 D,4 C,4 |!f! =B,,4 B,,2 B,,2 | _B,,4 B,,4 | A,,4 B,,4 |!>(! C,6!>)! D,2 | B,,4 C,4 | %39
w: ||||||
 !fermata!F,8 | z4!p!!<(! B,,4- | B,,4 A,,4!<)! | B,,8- |!>(! B,,8!>)! |!pp! F,8- | F,8 |] %46
w: |A-||||men.|_|

